X: 59
T:O'Donnell's Hornpipe
M:4/4
L:1/8
C:Traditional
R:Hornpipe
K:G
Bc|:"G"dg (3gfe dBed|BGAB "Am"A2 AG|"D"FGAB cdef|"G"(3gfg (3age  "D"d2 B
c|!
"G"dg (3gfe dBed|BGAB "Am" A2 AG|
"D"FGAB cdef|[1"G"(3gag fa "G"g2 Bc:|[2"G"(3gag "D"fa "G"g2 ef||!
"G"gbag"D"(3fga gf|"Am"ef (3gfe "D"fdBd|"G"gbag "D"(3fga gf|
"Am"ef (3gfe "G"d2B2|"Am"cccA "G"(3Bcd GB|!
"Am"(3ABc FA "D"EF D2|DEFG AB
(3cBA|[1"G"(3GAF AG2 ef:|[2"G"(3ded ef g2|]
